X:26
T:Mairi's Wedding
C:Scottish
M:2/4
L:1/8
K:D major
"D"A>B AB | "D"de f2 | "G"{f}ed Bd | "D"fe f<a |
"D"A>B AB | "D"de f2 | "G"{f}ed BG | "A"A4 :|
|: "D"aa/a/ ab | "D"ag f2 | "G"{f}ed Bd | "D"fe f<a |
"D"aa/a/ ab | "D"ag f2 | "G"{f}ed BG | "A"A4 :|
